X:1
T: The Duke of Buccleuch
C:
R:Reel
Q: 232
K:Bb
M:4/4
L:1/8
|:BA GF FB BB|Ac cc Bd dd|ce ee df ba|gf ed c2 d2|
BA GF FB BB|Ac cc Bd dd|ce ee df ba|gf ed c2 B2|
df ff gf ff|eg gg ag gg|df ff gf ff|ed cB Ac fe|
df ff gf ff|eg gg ag gg|df ff gf ff|gf ed c2 B2:|
